X: 31607
T: Pancake Tuesday
R: jig
M: 6/8
K: Adorian
|:A,3 ^CA,D|D^CA, DCA,|G,3 B,G,=C|B,DG GDB,|
A,3 ^CA,D|D^CA, DCA,|G,3 B,DG|1 GFE DB,G,:|2 GED B, (3B,^CD||
EA^G A2B|c2A AGF|GFG AGF|GFE D (3B,CD|
EA^G A2B|cBA G (3EFG|AGF GDC|B,2G, G,A,B,|
A,CE A2B|c2A AGF|GFG Bdg|age d (3Bcd|
cBc dcB|cAG G (3EFG|AGF GDC|B,2G, G,A,B,||

